X:1
T:D Major Oliver Holden, 1803
T:Thomas Scott, 1772 77. 77.
T:See He Rises No copyright. Transcribed from The Charlestown Collection, 1803.
%%score [ 1 2 3 4 ]
L:1/8
M:2/4
K:D
V:1 treble nm="Treble" snm="Tr."
V:2 treble nm="Counter" snm="C."
V:3 treble nm="Tenor" snm="T."
V:4 bass nm="Bass" snm="B."
V:1
 D2 F2 | A2 F2 | G2 E2 | D4 | A2 e2 | d2 f2 | e2 d2 | c4 | c2 de | f2 A2 | c2 de | f4 | dc de | %13
 A3 d | B2 ^A2 | B4 | DE FG | A2 A2 | d2 e2 | f4 | g2 f2 | e3 A | d2 e2 | d4 |] %24
V:2
 D2 F2 | A2 F2 | G2 E2 | D4 | C2 E2 | F2 A2 | E2 E2 | E4 | G2 FE | A2 F2 | G2 FG | A4 | FG FG | %13
w: 1.~An- gels,|roll the|rock a-|way!|Death, yield|up thy|migh- ty|prey!|See, He *|ri- ses|from the *|tomb,|Glo- * wing *|
 F3 A | F2 F2 | F4 | DE FG | A2 A2 | D2 A2 | A4 | G2 A2 | A3 G | F2 E2 | F4 |] %24
w: with im-|mor- tal|bloom;|See * He *|ri- ses|from the|tomb,|Glo- wing|with im-|mor- tal|bloom.|
V:3
 D2 F2 | A2 F2 | G2 E2 | D4 | E2 G2 | B2 d2 | cB A^G | A4 | e2 dc | d2 d2 | e2 dc | d4 | fe dc | %13
 d3 f | d2 c2 | B4 | DE FG | A2 A2 | B2 c2 | d4 | e2 f2 | g3 e | d2 c2 | d4 |] %24
V:4
 D,2 F,2 | A,2 F,2 | G,2 E,2 | D,4 | C,2 C,2 | D,2 D,2 | E,2 E,2 | A,,4 | A,2 A,2 | D,2 F,2 | %10
 A,2 A,,2 | D,4 | D,E, F,E, | D,3 E, | F,2 F,2 | B,,4 | D,E, F,G, | A,2 A,2 | G,2 E,2 | D,4 | %20
 A,2 D2 | A,3 A, | A,2 A,,2 | D,4 |] %24

